docs/website/static/assets/helpers/github.svg

<svg width="16" height="16"  viewBox="0 0 16 16" fill="none" xmlns="http://www.w3.org/2000/svg">
<path d="M10.6666 14.6667V12.0867C10.6916 11.7688 10.6486 11.4492 10.5406 11.1492C10.4325 10.8492 10.2619 10.5756 10.0399 10.3467C12.1333 10.1133 14.3333 9.32 14.3333 5.68C14.3331 4.74922 13.975 3.85413 13.3333 3.18C13.6372 2.36567 13.6157 1.46557 13.2733 0.666666C13.2733 0.666666 12.4866 0.433332 10.6666 1.65333C9.13859 1.23921 7.52791 1.23921 5.99992 1.65333C4.17992 0.433332 3.39325 0.666666 3.39325 0.666666C3.05084 1.46557 3.02935 2.36567 3.33325 3.18C2.68667 3.85913 2.32827 4.76231 2.33325 5.7C2.33325 9.31333 4.53325 10.1067 6.62659 10.3667C6.40725 10.5933 6.23809 10.8636 6.13012 11.1599C6.02215 11.4563 5.97779 11.772 5.99992 12.0867V14.6667" fill="#65BDEA"/>
<path d="M5.99992 12.6667C2.66659 13.6667 2.66659 11 1.33325 10.6667M10.6666 14.6667V12.0867C10.6916 11.7688 10.6486 11.4492 10.5406 11.1492C10.4325 10.8492 10.2619 10.5756 10.0399 10.3467C12.1333 10.1133 14.3333 9.32 14.3333 5.68C14.3331 4.74922 13.975 3.85413 13.3333 3.18C13.6372 2.36567 13.6157 1.46557 13.2733 0.666666C13.2733 0.666666 12.4866 0.433332 10.6666 1.65333C9.13859 1.23921 7.52791 1.23921 5.99992 1.65333C4.17992 0.433332 3.39325 0.666666 3.39325 0.666666C3.05084 1.46557 3.02935 2.36567 3.33325 3.18C2.68667 3.85913 2.32827 4.76231 2.33325 5.7C2.33325 9.31333 4.53325 10.1067 6.62659 10.3667C6.40725 10.5933 6.23809 10.8636 6.13012 11.1599C6.02215 11.4563 5.97779 11.772 5.99992 12.0867V14.6667H10.6666Z" stroke="#65BDEA" stroke-linecap="round" stroke-linejoin="round"/>
</svg>

<svg fill="none" xmlns="http://www.w3.org/2000/svg" viewBox="0 0 16 16">
  <path d="M10.6666 14.6668v-2.58a2.246 2.246 0 0 0-.6266-1.74c2.0933-.2333 4.2933-1.0267 4.2933-4.6667a3.6268 3.6268 0 0 0-1-2.5 3.38 3.38 0 0 0-.06-2.5133s-.7867-.2333-2.6067.9867a8.92 8.92 0 0 0-4.6666 0C4.18.4335 3.3933.6668 3.3933.6668a3.38 3.38 0 0 0-.06 2.5133 3.6267 3.6267 0 0 0-1 2.52c0 3.6133 2.2 4.4067 4.2934 4.6667A2.2458 2.2458 0 0 0 6 12.0868v2.58" fill="#0082CA"/>
  <path d="M6 12.6668c-3.3333 1-3.3333-1.6667-4.6667-2m9.3333 4v-2.58a2.246 2.246 0 0 0-.6266-1.74c2.0933-.2333 4.2933-1.0267 4.2933-4.6667a3.6268 3.6268 0 0 0-1-2.5 3.38 3.38 0 0 0-.06-2.5133s-.7867-.2333-2.6067.9867a8.92 8.92 0 0 0-4.6666 0C4.18.4335 3.3933.6668 3.3933.6668a3.38 3.38 0 0 0-.06 2.5133 3.6267 3.6267 0 0 0-1 2.52c0 3.6133 2.2 4.4067 4.2934 4.6667A2.2458 2.2458 0 0 0 6 12.0868v2.58h4.6666Z" stroke="#0082CA" stroke-linecap="round" stroke-linejoin="round"/>
</svg>
